img/java-logo.svg

<svg width="31" height="31" viewBox="0 0 31 31" fill="none" xmlns="http://www.w3.org/2000/svg">
<g clip-path="url(#clip0_85_9886)">
<path d="M15.9037 8.41308C22.0801 3.61819 18.9102 0.5 18.9102 0.5C19.3819 5.45692 13.8068 6.62734 12.3123 10.0336C11.2926 12.358 13.0107 14.3931 15.9017 16.9582C15.6461 16.3901 15.2519 15.8381 14.8529 15.2792C13.4917 13.3731 12.0738 11.3874 15.9037 8.41308Z" fill="#E76F00"/>
<path d="M16.8898 18.0097C16.8898 18.0097 18.7479 16.5105 17.2764 14.8445C12.2882 9.19235 22.7321 6.62732 22.7321 6.62732C16.3556 9.6992 17.3075 11.5225 18.9103 13.7377C20.6263 16.1129 16.8898 18.0097 16.8898 18.0097Z" fill="#E76F00"/>
<path d="M22.3606 22.4803C28.0843 19.5555 25.4379 16.7448 23.5908 17.1235C23.138 17.2161 22.9361 17.2965 22.9361 17.2965C22.9361 17.2965 23.1042 17.0375 23.4252 16.9254C27.0795 15.6621 29.8898 20.6515 22.2455 22.6276C22.2455 22.6276 22.3341 22.5498 22.3606 22.4803Z" fill="#5382A1"/>
<path d="M10.4506 18.7784C6.86942 18.3081 12.4142 17.0131 12.4142 17.0131C12.4142 17.0131 10.2609 16.8703 7.61267 18.1291C4.48128 19.6187 15.3585 20.2961 20.989 18.8399C21.5744 18.4468 22.3834 18.1061 22.3834 18.1061C22.3834 18.1061 20.0793 18.5107 17.7847 18.7011C14.977 18.9324 11.9627 18.9775 10.4506 18.7784Z" fill="#5382A1"/>
<path d="M11.8131 21.571C9.81611 21.368 11.1237 20.4161 11.1237 20.4161C5.95618 22.1027 13.9988 24.0153 21.2195 21.9389C20.452 21.6729 19.9639 21.1862 19.9639 21.1862C16.4349 21.8544 14.3956 21.8331 11.8131 21.571Z" fill="#5382A1"/>
<path d="M12.6832 24.5929C10.6878 24.3673 11.8535 23.7007 11.8535 23.7007C7.1627 24.9896 14.7067 27.6523 20.679 25.1353C19.7008 24.7613 19.0004 24.3295 19.0004 24.3295C16.3363 24.8252 15.1007 24.8641 12.6832 24.5929Z" fill="#5382A1"/>
<path d="M25.1746 26.1301C25.1746 26.1301 26.0373 26.8291 24.2245 27.3699C20.7772 28.3968 9.87674 28.707 6.84862 27.4109C5.76009 26.9452 7.80139 26.299 8.44351 26.1633C9.11317 26.0206 9.49586 26.0472 9.49586 26.0472C8.2853 25.2086 1.67133 27.6938 6.13628 28.4056C18.3129 30.3474 28.3331 27.5311 25.1746 26.1301Z" fill="#5382A1"/>
<path d="M27.1071 27.6574C26.9073 30.2138 18.4706 30.7515 12.9765 30.4057C9.3924 30.1797 8.67408 29.6148 8.66357 29.6066C12.0939 30.1627 17.8773 30.2639 22.5666 29.3961C26.723 28.6265 27.1071 27.6574 27.1071 27.6574Z" fill="#5382A1"/>
</g>
<defs>
<clipPath id="clip0_85_9886">
<rect width="30" height="30" fill="white" transform="translate(0.857117 0.5)"/>
</clipPath>
</defs>
</svg>

<svg xmlns="http://www.w3.org/2000/svg" width="31" height="31" fill="none"><g clip-path="url(#a)"><path fill="#E76F00" d="M15.904 8.413C22.08 3.618 18.91.5 18.91.5c.472 4.957-5.103 6.127-6.598 9.534-1.02 2.324.699 4.36 3.59 6.924-.256-.568-.65-1.12-1.05-1.679-1.36-1.906-2.778-3.892 1.052-6.866Z"/><path fill="#E76F00" d="M16.89 18.01s1.858-1.5.386-3.166c-4.988-5.652 5.456-8.217 5.456-8.217-6.376 3.072-5.424 4.896-3.822 7.11 1.716 2.376-2.02 4.273-2.02 4.273Z"/><path fill="#5382A1" d="M22.36 22.48c5.724-2.925 3.078-5.735 1.23-5.357-.452.093-.654.174-.654.174s.168-.26.49-.372c3.654-1.263 6.464 3.726-1.18 5.703 0 0 .088-.078.115-.148ZM10.45 18.778c-3.58-.47 1.964-1.765 1.964-1.765s-2.153-.143-4.801 1.116c-3.132 1.49 7.745 2.167 13.376.71.585-.392 1.394-.733 1.394-.733s-2.304.405-4.598.595c-2.808.231-5.822.276-7.334.077ZM11.813 21.571c-1.997-.203-.69-1.155-.69-1.155-5.167 1.687 2.876 3.6 10.097 1.523-.768-.266-1.256-.753-1.256-.753-3.53.668-5.568.647-8.15.385ZM12.683 24.593c-1.995-.226-.83-.892-.83-.892-4.69 1.289 2.854 3.951 8.826 1.434-.978-.374-1.679-.806-1.679-.806-2.664.496-3.9.535-6.317.264Z"/><path fill="#5382A1" d="M25.175 26.13s.862.7-.95 1.24c-3.448 1.027-14.348 1.337-17.376.04-1.089-.465.952-1.111 1.595-1.247.67-.142 1.052-.116 1.052-.116-1.21-.838-7.825 1.647-3.36 2.359 12.177 1.941 22.197-.875 19.039-2.276Z"/><path fill="#5382A1" d="M27.107 27.657c-.2 2.557-8.636 3.095-14.13 2.749-3.585-.226-4.303-.791-4.313-.8 3.43.557 9.213.658 13.903-.21 4.156-.77 4.54-1.739 4.54-1.739Z"/></g><defs><clipPath id="a"><path fill="#fff" d="M.857.5h30v30h-30z"/></clipPath></defs></svg>
